topics/special-relativity/Latex/images/svg/Time_dilation_rest_frame.svg

<?xml version="1.0" encoding="UTF-8"?>
<svg xmlns="http://www.w3.org/2000/svg" xmlns:xlink="http://www.w3.org/1999/xlink" width="129.377pt" height="155.785pt" viewBox="0 0 129.377 155.785" version="1.1">
<defs>
<g>
<symbol overflow="visible" id="glyph0-0">
<path style="stroke:none;" d=""/>
</symbol>
<symbol overflow="visible" id="glyph0-1">
<path style="stroke:none;" d="M 2.328125 -4.4375 C 2.328125 -4.625 2.328125 -4.625 2.125 -4.625 C 1.671875 -4.1875 1.046875 -4.1875 0.765625 -4.1875 L 0.765625 -3.9375 C 0.921875 -3.9375 1.390625 -3.9375 1.765625 -4.125 L 1.765625 -0.578125 C 1.765625 -0.34375 1.765625 -0.25 1.078125 -0.25 L 0.8125 -0.25 L 0.8125 0 C 0.9375 0 1.796875 -0.03125 2.046875 -0.03125 C 2.265625 -0.03125 3.140625 0 3.296875 0 L 3.296875 -0.25 L 3.03125 -0.25 C 2.328125 -0.25 2.328125 -0.34375 2.328125 -0.578125 Z M 2.328125 -4.4375 "/>
</symbol>
<symbol overflow="visible" id="glyph0-2">
<path style="stroke:none;" d="M 3.515625 -1.265625 L 3.28125 -1.265625 C 3.265625 -1.109375 3.1875 -0.703125 3.09375 -0.640625 C 3.046875 -0.59375 2.515625 -0.59375 2.40625 -0.59375 L 1.125 -0.59375 C 1.859375 -1.234375 2.109375 -1.4375 2.515625 -1.765625 C 3.03125 -2.171875 3.515625 -2.609375 3.515625 -3.265625 C 3.515625 -4.109375 2.78125 -4.625 1.890625 -4.625 C 1.03125 -4.625 0.4375 -4.015625 0.4375 -3.375 C 0.4375 -3.03125 0.734375 -2.984375 0.8125 -2.984375 C 0.96875 -2.984375 1.171875 -3.109375 1.171875 -3.359375 C 1.171875 -3.484375 1.125 -3.734375 0.765625 -3.734375 C 0.984375 -4.21875 1.453125 -4.375 1.78125 -4.375 C 2.484375 -4.375 2.84375 -3.828125 2.84375 -3.265625 C 2.84375 -2.65625 2.40625 -2.1875 2.1875 -1.9375 L 0.515625 -0.265625 C 0.4375 -0.203125 0.4375 -0.1875 0.4375 0 L 3.3125 0 Z M 3.515625 -1.265625 "/>
</symbol>
<symbol overflow="visible" id="glyph1-0">
<path style="stroke:none;" d=""/>
</symbol>
<symbol overflow="visible" id="glyph1-1">
<path style="stroke:none;" d="M 3.953125 -3.78125 C 3.78125 -3.78125 3.65625 -3.78125 3.515625 -3.65625 C 3.34375 -3.5 3.328125 -3.328125 3.328125 -3.265625 C 3.328125 -3.015625 3.515625 -2.90625 3.703125 -2.90625 C 3.984375 -2.90625 4.25 -3.15625 4.25 -3.546875 C 4.25 -4.03125 3.78125 -4.40625 3.078125 -4.40625 C 1.734375 -4.40625 0.40625 -2.984375 0.40625 -1.578125 C 0.40625 -0.671875 0.984375 0.109375 2.03125 0.109375 C 3.453125 0.109375 4.28125 -0.953125 4.28125 -1.0625 C 4.28125 -1.125 4.234375 -1.203125 4.171875 -1.203125 C 4.109375 -1.203125 4.09375 -1.171875 4.03125 -1.09375 C 3.25 -0.109375 2.15625 -0.109375 2.046875 -0.109375 C 1.421875 -0.109375 1.140625 -0.59375 1.140625 -1.203125 C 1.140625 -1.609375 1.34375 -2.578125 1.6875 -3.1875 C 2 -3.765625 2.546875 -4.1875 3.09375 -4.1875 C 3.421875 -4.1875 3.8125 -4.0625 3.953125 -3.78125 Z M 3.953125 -3.78125 "/>
</symbol>
<symbol overflow="visible" id="glyph1-2">
<path style="stroke:none;" d="M 2.046875 -3.984375 L 2.984375 -3.984375 C 3.1875 -3.984375 3.296875 -3.984375 3.296875 -4.1875 C 3.296875 -4.296875 3.1875 -4.296875 3.015625 -4.296875 L 2.140625 -4.296875 C 2.5 -5.71875 2.546875 -5.90625 2.546875 -5.96875 C 2.546875 -6.140625 2.421875 -6.234375 2.25 -6.234375 C 2.21875 -6.234375 1.9375 -6.234375 1.859375 -5.875 L 1.46875 -4.296875 L 0.53125 -4.296875 C 0.328125 -4.296875 0.234375 -4.296875 0.234375 -4.109375 C 0.234375 -3.984375 0.3125 -3.984375 0.515625 -3.984375 L 1.390625 -3.984375 C 0.671875 -1.15625 0.625 -0.984375 0.625 -0.8125 C 0.625 -0.265625 1 0.109375 1.546875 0.109375 C 2.5625 0.109375 3.125 -1.34375 3.125 -1.421875 C 3.125 -1.53125 3.046875 -1.53125 3.015625 -1.53125 C 2.921875 -1.53125 2.90625 -1.5 2.859375 -1.390625 C 2.4375 -0.34375 1.90625 -0.109375 1.5625 -0.109375 C 1.359375 -0.109375 1.25 -0.234375 1.25 -0.5625 C 1.25 -0.8125 1.28125 -0.875 1.3125 -1.046875 Z M 2.046875 -3.984375 "/>
</symbol>
<symbol overflow="visible" id="glyph1-3">
<path style="stroke:none;" d="M 3.734375 -6.03125 C 3.8125 -6.390625 3.84375 -6.5 4.78125 -6.5 C 5.078125 -6.5 5.15625 -6.5 5.15625 -6.6875 C 5.15625 -6.8125 5.046875 -6.8125 5 -6.8125 C 4.671875 -6.8125 3.859375 -6.78125 3.53125 -6.78125 C 3.234375 -6.78125 2.5 -6.8125 2.203125 -6.8125 C 2.140625 -6.8125 2.015625 -6.8125 2.015625 -6.609375 C 2.015625 -6.5 2.109375 -6.5 2.296875 -6.5 C 2.3125 -6.5 2.5 -6.5 2.671875 -6.484375 C 2.84375 -6.453125 2.9375 -6.453125 2.9375 -6.3125 C 2.9375 -6.28125 2.9375 -6.25 2.90625 -6.125 L 1.5625 -0.78125 C 1.46875 -0.390625 1.453125 -0.3125 0.65625 -0.3125 C 0.484375 -0.3125 0.390625 -0.3125 0.390625 -0.109375 C 0.390625 0 0.484375 0 0.65625 0 L 5.28125 0 C 5.515625 0 5.515625 0 5.578125 -0.171875 L 6.375 -2.328125 C 6.40625 -2.4375 6.40625 -2.453125 6.40625 -2.46875 C 6.40625 -2.5 6.375 -2.578125 6.296875 -2.578125 C 6.203125 -2.578125 6.1875 -2.515625 6.125 -2.359375 C 5.78125 -1.453125 5.34375 -0.3125 3.625 -0.3125 L 2.6875 -0.3125 C 2.546875 -0.3125 2.515625 -0.3125 2.46875 -0.3125 C 2.359375 -0.328125 2.328125 -0.34375 2.328125 -0.421875 C 2.328125 -0.453125 2.328125 -0.46875 2.375 -0.640625 Z M 3.734375 -6.03125 "/>
</symbol>
<symbol overflow="visible" id="glyph2-0">
<path style="stroke:none;" d=""/>
</symbol>
<symbol overflow="visible" id="glyph2-1">
<path style="stroke:none;" d="M 4.40625 -6.953125 C 4.34375 -7.09375 4.3125 -7.140625 4.140625 -7.140625 C 3.984375 -7.140625 3.953125 -7.09375 3.890625 -6.953125 L 0.515625 -0.203125 C 0.46875 -0.109375 0.46875 -0.09375 0.46875 -0.078125 C 0.46875 0 0.53125 0 0.6875 0 L 7.609375 0 C 7.765625 0 7.828125 0 7.828125 -0.078125 C 7.828125 -0.09375 7.828125 -0.109375 7.78125 -0.203125 Z M 3.828125 -6.140625 L 6.515625 -0.75 L 1.140625 -0.75 Z M 3.828125 -6.140625 "/>
</symbol>
</g>
<clipPath id="clip1">
  <path d="M 110 3 L 129.378906 3 L 129.378906 41 L 110 41 Z M 110 3 "/>
</clipPath>
<clipPath id="clip2">
  <path d="M 105 0 L 129.378906 0 L 129.378906 47 L 105 47 Z M 105 0 "/>
</clipPath>
</defs>
<g id="surface1">
<path style=" stroke:none;fill-rule:nonzero;fill:rgb(100%,89.411926%,78.431702%);fill-opacity:1;" d="M 0 155.785156 L 129.378906 155.785156 L 129.378906 0 L 0 0 Z M 0 155.785156 "/>
<path style="fill-rule:nonzero;fill:rgb(50%,50%,50%);fill-opacity:1;stroke-width:0.3985;stroke-linecap:butt;stroke-linejoin:miter;stroke:rgb(0%,0%,0%);stroke-opacity:1;stroke-miterlimit:10;" d="M 9.213 110.555 C 9.213 120.730781 5.088 128.980781 -0.00184375 128.980781 C -5.087781 128.980781 -9.212781 120.730781 -9.212781 110.555 C -9.212781 100.379219 -5.087781 92.129219 -0.00184375 92.129219 C 5.088 92.129219 9.213 100.379219 9.213 110.555 Z M 9.213 110.555 " transform="matrix(1,0,0,-1,9.412,132.555)"/>
<g clip-path="url(#clip1)" clip-rule="nonzero">
<path style=" stroke:none;fill-rule:nonzero;fill:rgb(50%,50%,50%);fill-opacity:1;" d="M 129.179688 22 C 129.179688 11.824219 125.054688 3.574219 119.96875 3.574219 C 114.878906 3.574219 110.753906 11.824219 110.753906 22 C 110.753906 32.175781 114.878906 40.425781 119.96875 40.425781 C 125.054688 40.425781 129.179688 32.175781 129.179688 22 Z M 129.179688 22 "/>
</g>
<g clip-path="url(#clip2)" clip-rule="nonzero">
<path style="fill:none;stroke-width:0.3985;stroke-linecap:butt;stroke-linejoin:miter;stroke:rgb(0%,0%,0%);stroke-opacity:1;stroke-miterlimit:10;" d="M 119.767687 110.555 C 119.767687 120.730781 115.642687 128.980781 110.55675 128.980781 C 105.466906 128.980781 101.341906 120.730781 101.341906 110.555 C 101.341906 100.379219 105.466906 92.129219 110.55675 92.129219 C 115.642687 92.129219 119.767687 100.379219 119.767687 110.555 Z M 119.767687 110.555 " transform="matrix(1,0,0,-1,9.412,132.555)"/>
</g>
<path style="fill:none;stroke-width:1.49442;stroke-linecap:butt;stroke-linejoin:miter;stroke:rgb(100%,0%,0%);stroke-opacity:1;stroke-dasharray:2.98883,2.98883;stroke-miterlimit:10;" d="M -0.00184375 107.789375 L 106.916125 107.789375 " transform="matrix(1,0,0,-1,9.412,132.555)"/>
<path style=" stroke:none;fill-rule:nonzero;fill:rgb(100%,0%,0%);fill-opacity:1;" d="M 119.964844 24.765625 L 114.144531 21.859375 L 116.328125 24.765625 L 114.144531 27.675781 "/>
<path style="fill:none;stroke-width:1.49442;stroke-linecap:butt;stroke-linejoin:miter;stroke:rgb(100%,0%,0%);stroke-opacity:1;stroke-dasharray:2.98883,2.98883;stroke-miterlimit:10;" d="M 110.552844 113.316719 L 3.634875 113.316719 " transform="matrix(1,0,0,-1,9.412,132.555)"/>
<path style=" stroke:none;fill-rule:nonzero;fill:rgb(100%,0%,0%);fill-opacity:1;" d="M 9.410156 19.238281 L 15.230469 22.148438 L 13.046875 19.238281 L 15.230469 16.332031 "/>
<g style="fill:rgb(100%,0%,0%);fill-opacity:1;">
  <use xlink:href="#glyph0-1" x="54.596" y="7.815"/>
</g>
<path style="fill:none;stroke-width:0.398;stroke-linecap:butt;stroke-linejoin:miter;stroke:rgb(100%,0%,0%);stroke-opacity:1;stroke-miterlimit:10;" d="M 0.00165625 0.00090625 L 3.970406 0.00090625 " transform="matrix(1,0,0,-1,54.596,9.247)"/>
<g style="fill:rgb(100%,0%,0%);fill-opacity:1;">
  <use xlink:href="#glyph0-2" x="54.596" y="15.173"/>
</g>
<g style="fill:rgb(100%,0%,0%);fill-opacity:1;">
  <use xlink:href="#glyph1-1" x="59.762" y="11.738"/>
</g>
<g style="fill:rgb(100%,0%,0%);fill-opacity:1;">
  <use xlink:href="#glyph2-1" x="64.073813" y="11.738"/>
</g>
<g style="fill:rgb(100%,0%,0%);fill-opacity:1;">
  <use xlink:href="#glyph1-2" x="72.375648" y="11.738"/>
</g>
<path style="fill:none;stroke-width:0.79701;stroke-linecap:butt;stroke-linejoin:miter;stroke:rgb(0%,0%,0%);stroke-opacity:1;stroke-miterlimit:10;" d="M 0.798937 86.597969 L 109.755969 86.597969 " transform="matrix(1,0,0,-1,9.412,132.555)"/>
<path style="fill:none;stroke-width:0.79701;stroke-linecap:round;stroke-linejoin:round;stroke:rgb(0%,0%,0%);stroke-opacity:1;stroke-miterlimit:10;" d="M -2.548875 3.110006 C -2.084031 1.242819 -1.044969 0.363912 0.00190625 0.00063125 C -1.044969 -0.36265 -2.084031 -1.245463 -2.548875 -3.11265 " transform="matrix(-1,0,0,1,9.8105,45.9564)"/>
<path style="fill:none;stroke-width:0.79701;stroke-linecap:round;stroke-linejoin:round;stroke:rgb(0%,0%,0%);stroke-opacity:1;stroke-miterlimit:10;" d="M -2.549375 3.11265 C -2.084531 1.245463 -1.045469 0.36265 0.00140625 -0.00063125 C -1.045469 -0.363912 -2.084531 -1.242819 -2.549375 -3.110006 " transform="matrix(1,0,0,-1,119.565,45.9564)"/>
<g style="fill:rgb(0%,0%,0%);fill-opacity:1;">
  <use xlink:href="#glyph1-3" x="61.297" y="42.238"/>
</g>
</g>
</svg>

<svg xmlns="http://www.w3.org/2000/svg" xmlns:xlink="http://www.w3.org/1999/xlink" width="172.5" height="207.71" viewBox="0 0 129.38 155.78"><defs><symbol id="c" overflow="visible"><path d="M2.33-4.44c0-.18 0-.18-.2-.18-.46.43-1.08.43-1.36.43v.25c.15 0 .62 0 1-.19v3.55c0 .24 0 .33-.7.33H.82V0l1.24-.03L3.3 0v-.25h-.27c-.7 0-.7-.1-.7-.33Zm0 0" style="stroke:none"/></symbol><symbol id="d" overflow="visible"><path d="M3.52-1.27h-.24c-.01.16-.1.57-.19.63-.04.05-.57.05-.68.05H1.13c.73-.64.98-.85 1.39-1.18.51-.4 1-.84 1-1.5 0-.84-.74-1.35-1.63-1.35-.86 0-1.45.6-1.45 1.25 0 .34.3.39.37.39.16 0 .36-.13.36-.38 0-.12-.04-.37-.4-.37a1.1 1.1 0 0 1 1.01-.64c.7 0 1.06.54 1.06 1.1 0 .61-.43 1.08-.65 1.33L.52-.27C.44-.2.44-.19.44 0H3.3Zm0 0" style="stroke:none"/></symbol><symbol id="e" overflow="visible"><path d="M3.95-3.78c-.17 0-.3 0-.43.12a.5.5 0 0 0-.2.4c0 .24.2.35.38.35.28 0 .55-.25.55-.64 0-.48-.47-.86-1.17-.86C1.73-4.4.4-2.98.4-1.58.4-.68.98.11 2.03.11 3.45.1 4.28-.95 4.28-1.06c0-.06-.05-.14-.1-.14-.07 0-.09.03-.15.1-.78 1-1.87 1-1.98 1-.63 0-.9-.5-.9-1.1 0-.4.2-1.38.54-1.99.31-.58.86-1 1.4-1 .33 0 .72.13.86.4m0 0" style="stroke:none"/></symbol><symbol id="g" overflow="visible"><path d="M2.05-3.98h.93c.2 0 .32 0 .32-.2 0-.12-.11-.12-.28-.12h-.88c.36-1.42.4-1.6.4-1.67q-.02-.26-.29-.26c-.03 0-.31 0-.4.36L1.48-4.3H.53c-.2 0-.3 0-.3.2 0 .12.08.12.29.12h.87C.67-1.16.63-.98.63-.81c0 .54.37.92.92.92 1.01 0 1.58-1.45 1.58-1.53 0-.11-.08-.11-.11-.11-.1 0-.11.03-.16.14C2.44-.34 1.9-.11 1.56-.11c-.2 0-.31-.12-.31-.45 0-.25.03-.31.06-.49Zm0 0" style="stroke:none"/></symbol><symbol id="h" overflow="visible"><path d="M3.73-6.03c.08-.36.11-.47 1.05-.47.3 0 .38 0 .38-.19 0-.12-.11-.12-.16-.12l-1.47.03-1.33-.03c-.06 0-.18 0-.18.2 0 .11.09.11.28.11.01 0 .2 0 .37.02s.27.03.27.17l-.03.18L1.56-.78c-.1.39-.1.47-.9.47-.18 0-.27 0-.27.2C.4 0 .5 0 .66 0h4.62c.24 0 .24 0 .3-.17l.8-2.16.03-.14c0-.03-.04-.1-.11-.1-.1 0-.11.05-.17.21-.35.9-.79 2.05-2.5 2.05H2.47q-.15-.01-.14-.11l.04-.22Zm0 0" style="stroke:none"/></symbol><symbol id="f" overflow="visible"><path d="M4.4-6.95c-.06-.14-.09-.2-.26-.2-.16 0-.19.06-.25.2L.52-.2l-.05.12c0 .08.06.08.22.08H7.6c.16 0 .22 0 .22-.08q.01 0-.05-.12Zm-.57.8 2.69 5.4H1.14Zm0 0" style="stroke:none"/></symbol><clipPath id="a"><path d="M110 3h19.38v38H110Zm0 0"/></clipPath><clipPath id="b"><path d="M105 0h24.38v47H105Zm0 0"/></clipPath></defs><path d="M0 155.79h129.38V0H0Zm0 0" style="stroke:none;fill-rule:nonzero;fill:#ffe4c8;fill-opacity:1"/><path d="M9.21 110.56c0 10.17-4.12 18.42-9.21 18.42s-9.21-8.25-9.21-18.42 4.12-18.43 9.2-18.43c5.1 0 9.22 8.25 9.22 18.43Zm0 0" style="fill-rule:nonzero;fill:gray;fill-opacity:1;stroke-width:.3985;stroke-linecap:butt;stroke-linejoin:miter;stroke:#000;stroke-opacity:1;stroke-miterlimit:10" transform="matrix(1 0 0 -1 9.41 132.56)"/><g clip-path="url(#a)"><path d="M129.18 22c0-10.18-4.13-18.43-9.21-18.43-5.1 0-9.22 8.25-9.22 18.43s4.13 18.43 9.22 18.43c5.08 0 9.21-8.25 9.21-18.43m0 0" style="stroke:none;fill-rule:nonzero;fill:gray;fill-opacity:1"/></g><g clip-path="url(#b)"><path d="M119.77 110.56c0 10.17-4.13 18.42-9.21 18.42-5.1 0-9.22-8.25-9.22-18.42s4.13-18.43 9.22-18.43c5.08 0 9.2 8.25 9.2 18.43Zm0 0" style="fill:none;stroke-width:.3985;stroke-linecap:butt;stroke-linejoin:miter;stroke:#000;stroke-opacity:1;stroke-miterlimit:10" transform="matrix(1 0 0 -1 9.41 132.56)"/></g><path d="M0 107.79h106.92" style="fill:none;stroke-width:1.49442;stroke-linecap:butt;stroke-linejoin:miter;stroke:red;stroke-opacity:1;stroke-dasharray:2.98883,2.98883;stroke-miterlimit:10" transform="matrix(1 0 0 -1 9.41 132.56)"/><path d="m119.96 24.77-5.82-2.91 2.19 2.9-2.19 2.92" style="stroke:none;fill-rule:nonzero;fill:red;fill-opacity:1"/><path d="M110.55 113.32H3.63" style="fill:none;stroke-width:1.49442;stroke-linecap:butt;stroke-linejoin:miter;stroke:red;stroke-opacity:1;stroke-dasharray:2.98883,2.98883;stroke-miterlimit:10" transform="matrix(1 0 0 -1 9.41 132.56)"/><path d="m9.41 19.24 5.82 2.9-2.18-2.9 2.18-2.9" style="stroke:none;fill-rule:nonzero;fill:red;fill-opacity:1"/><use xlink:href="#c" x="54.6" y="7.82" style="fill:red;fill-opacity:1"/><path d="M0 0h3.97" style="fill:none;stroke-width:.398;stroke-linecap:butt;stroke-linejoin:miter;stroke:red;stroke-opacity:1;stroke-miterlimit:10" transform="matrix(1 0 0 -1 54.6 9.25)"/><use xlink:href="#d" x="54.6" y="15.17" style="fill:red;fill-opacity:1"/><use xlink:href="#e" x="59.76" y="11.74" style="fill:red;fill-opacity:1"/><use xlink:href="#f" x="64.07" y="11.74" style="fill:red;fill-opacity:1"/><use xlink:href="#g" x="72.38" y="11.74" style="fill:red;fill-opacity:1"/><path d="M.8 86.6h108.96" style="fill:none;stroke-width:.79701;stroke-linecap:butt;stroke-linejoin:miter;stroke:#000;stroke-opacity:1;stroke-miterlimit:10" transform="matrix(1 0 0 -1 9.41 132.56)"/><path d="M-2.55 3.11C-2.08 1.24-1.05.36 0 .01c-1.04-.37-2.08-1.26-2.55-3.12" style="fill:none;stroke-width:.79701;stroke-linecap:round;stroke-linejoin:round;stroke:#000;stroke-opacity:1;stroke-miterlimit:10" transform="matrix(-1 0 0 1 9.81 45.96)"/><path d="M-2.55 3.11C-2.08 1.25-1.05.36 0 0c-1.05-.36-2.08-1.24-2.55-3.11" style="fill:none;stroke-width:.79701;stroke-linecap:round;stroke-linejoin:round;stroke:#000;stroke-opacity:1;stroke-miterlimit:10" transform="matrix(1 0 0 -1 119.56 45.96)"/><use xlink:href="#h" x="61.3" y="42.24" style="fill:#000;fill-opacity:1"/></svg>
